X: 4
T: Kick The World Before Me
R: slip jig
M: 9/8
L: 1/8
K: Edor
|:F|G2 E FD[B,F] [B,2E2] D|GFE FED E2 F|GEE FD[B,F] [B,E]DF|G2 B AGF E2:|
|:F|GDG GBG F2 A|G2 G GBG A2 F|GDG GBG FGA|GFE FD[B,F] [A,2E2]:|

